src/img/logos/facebook.svg

<svg width="150" height="150" viewBox="0 0 150 150" fill="none" xmlns="http://www.w3.org/2000/svg">
<path d="M150 75.4584C150 33.7838 116.421 0 75 0C33.5786 0 0 33.7838 0 75.4584C0 113.122 27.4266 144.339 63.2812 150V97.2705H44.2383V75.4584H63.2812V58.8339C63.2812 39.9222 74.4782 29.4759 91.6099 29.4759C99.8156 29.4759 108.398 30.9497 108.398 30.9497V49.5195H98.9411C89.6244 49.5195 86.7188 55.336 86.7188 61.3034V75.4584H107.52L104.194 97.2705H86.7188V150C122.574 144.339 150 113.122 150 75.4584Z" fill="black"/>
</svg>

<?xml version="1.0" encoding="utf-8"?>
<!-- Generator: Adobe Illustrator 16.0.2, SVG Export Plug-In . SVG Version: 6.00 Build 0)  -->
<!DOCTYPE svg PUBLIC "-//W3C//DTD SVG 1.1//EN" "http://www.w3.org/Graphics/SVG/1.1/DTD/svg11.dtd">
<svg version="1.1" id="Layer_1" xmlns="http://www.w3.org/2000/svg" xmlns:xlink="http://www.w3.org/1999/xlink" x="0px" y="0px"
	 width="150px" height="150px" viewBox="0 0 150 150" enable-background="new 0 0 150 150" xml:space="preserve">
<path fill="#EBE4E9" d="M150,75.458C150,33.784,116.421,0,75,0C33.579,0,0,33.784,0,75.458c0,37.664,27.427,68.88,63.281,74.542
	V97.271H44.238V75.458h19.043V58.834c0-18.912,11.197-29.358,28.328-29.358c8.206,0,16.789,1.474,16.789,1.474v18.57h-9.457
	c-9.316,0-12.223,5.816-12.223,11.784v14.155h20.801l-3.326,21.812H86.719V150C122.574,144.339,150,113.122,150,75.458z"/>
</svg>
